!!!SOCIAL_FUNCTION:	songs used in the treatment of the sick
!!!PDT:	1929
!!!OTL: No_76_In_the_Dark_I_Enter.krn
!!!REG: Southwest
!!!LANG: Non-Tone
!!!LING_GROUP: Uto-Aztecan
**kern
*staff1
*clefF4
*k[f#]
*M3/4
8.G\L
16G\Jk
=1
8.c\L
16c\Jk
8.c\L
16A\Jk
8.c\L
16A\Jk
=2||
*M2/4
8G\L
16G\L
16G\JJ
4G\
=3
8.d\L
16d\Jk
8.d\L
16B\Jk
=4
8.G\L
16G\Jk
12A\L
12G\
12G\J
=5||
*M3/4
8G\L
16G\L
16G\JJ
2G\
=6||
*M2/4
16A\LL
16G\
16G\
16G\JJ
16A\LL
16G\
16.G\
32A\JJk
=7||
*M3/4
2G;\
4G\
=8||
*M2/4
8.G\L
16G\Jk
8.G\L
16G\Jk
=9
12G\L
12D\
12D\J
8G\L
[8G\J
=10
2G\]
==
*-
